portfolio/ecw/static/images/icons/icon-wash-2.svg

<?xml version="1.0" encoding="UTF-8"?>
<svg width="108px" height="83px" viewBox="0 0 108 83" version="1.1" xmlns="http://www.w3.org/2000/svg" xmlns:xlink="http://www.w3.org/1999/xlink">
    <!-- Generator: Sketch 54.1 (76490) - https://sketchapp.com -->
    <title>icon-wash-2</title>
    <desc>Created with Sketch.</desc>
    <defs>
        <polygon id="path-1" points="0 0.334425 20.5783714 0.334425 20.5783714 41.9998425 0 41.9998425"></polygon>
        <polygon id="path-3" points="0.3082625 0.438026667 38.6760833 0.438026667 38.6760833 23.8598933 0.3082625 23.8598933"></polygon>
    </defs>
    <g id="Page-1" stroke="none" stroke-width="1" fill="none" fill-rule="evenodd">
        <g id="icon-wash-2">
            <circle id="Oval-Copy-3" fill="#CD171A" fill-rule="nonzero" cx="66.5" cy="41.5" r="41.5"></circle>
            <circle id="Oval-Copy-4" fill="#CD171A" fill-rule="nonzero" cx="20.5" cy="20.5" r="20.5"></circle>
            <text id="2" fill="#FFFFFF" font-family="TisaSansOT, Tisa Sans OT" font-size="25" font-weight="normal">
                <tspan x="11.25" y="26">2</tspan>
            </text>
            <g id="Group-13" transform="translate(35.000000, 19.000000)">
                <g id="Group-3" transform="translate(0.500000, 0.000000)">
                    <g id="Fill-1-Clipped">
                        <mask id="mask-2" fill="white">
                            <use xlink:href="#path-1"></use>
                        </mask>
                        <g id="path-1"></g>
                        <path d="M4.04987692,2.1717675 C2.89595385,2.1717675 1.95741538,3.0868425 1.95741538,4.2119175 C1.95741538,4.3562925 1.95526154,4.4990925 1.95364615,4.6382175 C1.93695385,5.8913925 2.01664615,6.0441675 2.36287692,6.1533675 C2.75595385,6.2772675 3.02033846,6.6358425 3.01549231,7.0390425 C3.01064615,7.4411925 2.73710769,7.7939925 2.34133846,7.9084425 C1.96387692,8.0176425 1.87664615,8.1788175 1.88741538,9.5133675 L1.88956923,9.8635425 L1.88633846,10.2604425 C1.87233846,11.5466925 1.95472308,11.7031425 2.31333846,11.8123425 C2.70749231,11.9320425 2.97564615,12.2874675 2.97564615,12.6896175 C2.97564615,13.0912425 2.70749231,13.4471925 2.31333846,13.5668925 C1.95472308,13.6755675 1.87233846,13.8320175 1.88633846,15.1187925 L1.88956923,15.5156925 L1.88633846,15.9120675 C1.87233846,17.1988425 1.95472308,17.3547675 2.31333846,17.4639675 C2.70749231,17.5836675 2.97564615,17.9390925 2.97564615,18.3412425 C2.97564615,18.7433925 2.70749231,19.0988175 2.31333846,19.2185175 C1.95472308,19.3271925 1.87233846,19.4836425 1.88633846,20.7704175 L1.88956923,21.1673175 L1.88633846,21.5636925 C1.87233846,22.8504675 1.95472308,23.0069175 2.31387692,23.1161175 C2.70803077,23.2358175 2.97564615,23.5912425 2.97564615,23.9928675 C2.97564615,24.3950175 2.70749231,24.7504425 2.31333846,24.8701425 C1.95472308,24.9793425 1.87233846,25.1352675 1.88633846,26.4220425 L1.88956923,26.8184175 L1.88633846,27.2153175 C1.87233846,28.5020925 1.95472308,28.6580175 2.31333846,28.7672175 C2.70749231,28.8874425 2.97564615,29.2423425 2.97564615,29.6444925 C2.97564615,30.0466425 2.70749231,30.4015425 2.31333846,30.5217675 C1.95472308,30.6309675 1.87233846,30.7868925 1.88633846,32.0736675 L1.88956923,32.4705675 L1.88633846,32.8674675 C1.87233846,34.1542425 1.95472308,34.3101675 2.31333846,34.4193675 C2.70749231,34.5390675 2.97564615,34.8944925 2.97564615,35.2966425 C2.97564615,35.6982675 2.70749231,36.0536925 2.31333846,36.1739175 C1.95472308,36.2831175 1.87233846,36.4390425 1.88633846,37.7258175 L1.88956923,38.1227175 C1.88956923,39.2472675 2.82810769,40.1623425 3.98203077,40.1623425 L16.5303385,40.1623425 C17.6837231,40.1623425 18.6222615,39.2472675 18.6222615,38.1227175 L18.6254923,37.7273925 C18.6400308,36.4390425 18.5571077,36.2831175 18.1979538,36.1739175 C17.8043385,36.0536925 17.5361846,35.6982675 17.5361846,35.2966425 C17.5361846,34.8944925 17.8043385,34.5390675 18.1979538,34.4193675 C18.5571077,34.3101675 18.6400308,34.1537175 18.6254923,32.8658925 L18.6222615,32.4705675 L18.6254923,32.0752425 C18.6400308,30.7874175 18.5571077,30.6309675 18.1979538,30.5217675 C17.8043385,30.4015425 17.5361846,30.0466425 17.5361846,29.6444925 C17.5361846,29.2423425 17.8043385,28.8874425 18.1979538,28.7672175 C18.5571077,28.6580175 18.6400308,28.5015675 18.6254923,27.2137425 L18.6222615,26.8184175 L18.6254923,26.4230925 C18.6400308,25.1357925 18.5571077,24.9793425 18.1979538,24.8701425 C17.8043385,24.7504425 17.5361846,24.3950175 17.5361846,23.9928675 C17.5361846,23.5912425 17.8038,23.2358175 18.1974154,23.1161175 C18.5571077,23.0069175 18.6400308,22.8504675 18.6254923,21.5626425 L18.6222615,21.1673175 L18.6254923,20.7714675 C18.6400308,19.4841675 18.5571077,19.3277175 18.1979538,19.2185175 C17.8043385,19.0988175 17.5361846,18.7433925 17.5361846,18.3412425 C17.5361846,17.9390925 17.8043385,17.5836675 18.1979538,17.4639675 C18.5571077,17.3547675 18.6400308,17.1983175 18.6254923,15.9110175 L18.6222615,15.5156925 L18.6254923,15.1198425 C18.6400308,13.8320175 18.5571077,13.6760925 18.1979538,13.5668925 C17.8043385,13.4471925 17.5361846,13.0912425 17.5361846,12.6896175 C17.5361846,12.2874675 17.8043385,11.9320425 18.1979538,11.8123425 C18.5571077,11.7031425 18.6400308,11.5466925 18.6254923,10.2588675 L18.6222615,9.8635425 C18.6222615,9.7186425 18.6244154,9.5763675 18.6260308,9.4372425 C18.6432615,8.1840675 18.5635692,8.0312925 18.2173385,7.9220925 C17.8242615,7.7981925 17.5598769,7.4396175 17.5647231,7.0369425 C17.5690308,6.6342675 17.8425692,6.2814675 18.2388769,6.1670175 C18.6163385,6.0578175 18.7035692,5.8966425 18.6922615,4.5615675 L18.6901077,4.2119175 C18.6901077,3.0868425 17.7515692,2.1717675 16.5981846,2.1717675 L4.04987692,2.1717675 Z M16.5303385,41.9998425 L3.98203077,41.9998425 C1.78941538,41.9998425 0.00495384615,40.2605175 0.00495384615,38.1227175 L0.00226153846,37.7462925 C-0.00635384615,36.9750675 -0.0171230769,36.0174675 0.479338462,35.2966425 C-0.0171230769,34.5758175 -0.00635384615,33.6176925 0.00226153846,32.8469925 L0.00495384615,32.4705675 L0.00226153846,32.0941425 C-0.00635384615,31.3229175 -0.0171230769,30.3653175 0.479338462,29.6444925 C-0.0171230769,28.9236675 -0.00635384615,27.9660675 0.00226153846,27.1948425 L0.00495384615,26.8184175 L0.00226153846,26.4419925 C-0.00635384615,25.6712925 -0.0176615385,24.7136925 0.479338462,23.9928675 C-0.0176615385,23.2720425 -0.00635384615,22.3144425 0.00226153846,21.5437425 L0.00495384615,21.1673175 L0.00226153846,20.7903675 C-0.00635384615,20.0196675 -0.0171230769,19.0615425 0.479338462,18.3412425 C-0.0171230769,17.6204175 -0.00635384615,16.6628175 0.00226153846,15.8915925 L0.00495384615,15.5156925 L0.00226153846,15.1387425 C-0.00635384615,14.3680425 -0.0171230769,13.4099175 0.479338462,12.6896175 C-0.0171230769,11.9687925 -0.00635384615,11.0106675 0.00226153846,10.2399675 L0.00495384615,9.8635425 L0.0028,9.5285925 C-0.00312307692,8.7300675 -0.0117384615,7.7351925 0.516492308,7.0017675 C0.0464153846,6.2909175 0.0593384615,5.3632425 0.0690307692,4.6140675 C0.0711846154,4.4828175 0.0728,4.3484175 0.0728,4.2119175 C0.0728,2.0735925 1.85726154,0.3342675 4.04987692,0.3342675 L16.5981846,0.3342675 C18.7908,0.3342675 20.5747231,2.0735925 20.5747231,4.2119175 L20.5768769,4.5463425 C20.5833385,5.3453925 20.5919538,6.3402675 20.0631846,7.0736925 C20.5332615,7.7840175 20.5208769,8.7122175 20.5106462,9.4613925 C20.5084923,9.5926425 20.5068769,9.7270425 20.5068769,9.8635425 L20.5095692,10.2389175 C20.5187231,11.0101425 20.5289538,11.9687925 20.0324923,12.6896175 C20.5289538,13.4104425 20.5187231,14.3685675 20.5095692,15.1397925 L20.5068769,15.5156925 L20.5095692,15.8905425 C20.5187231,16.6622925 20.5289538,17.6204175 20.0324923,18.3412425 C20.5289538,19.0620675 20.5187231,20.0207175 20.5095692,20.7914175 L20.5068769,21.1673175 L20.5095692,21.5421675 C20.5187231,22.3133925 20.5289538,23.2715175 20.0324923,23.9928675 C20.5289538,24.7142175 20.5187231,25.6723425 20.5095692,26.4430425 L20.5068769,26.8184175 L20.5095692,27.1937925 C20.5187231,27.9655425 20.5289538,28.9236675 20.0324923,29.6444925 C20.5289538,30.3653175 20.5187231,31.3234425 20.5095692,32.0951925 L20.5068769,32.4705675 L20.5095692,32.8459425 C20.5187231,33.6171675 20.5289538,34.5758175 20.0324923,35.2966425 C20.5289538,36.0174675 20.5187231,36.9755925 20.5095692,37.7473425 L20.5068769,38.1227175 C20.5068769,40.2605175 18.7229538,41.9998425 16.5303385,41.9998425 L16.5303385,41.9998425 Z" id="Fill-1" fill="#FEFEFE" fill-rule="nonzero" mask="url(#mask-2)"></path>
                    </g>
                </g>
                <g id="Group-6" transform="translate(23.500000, 19.000000)">
                    <g id="Fill-4-Clipped">
                        <mask id="mask-4" fill="white">
                            <use xlink:href="#path-3"></use>
                        </mask>
                        <g id="path-3"></g>
                        <path d="M7.9815125,16.3046933 C9.68667917,16.3046933 11.0511375,17.6476267 11.0511375,19.32656 C11.0511375,21.0054933 9.68667917,22.34896 7.9815125,22.34896 C6.27634583,22.34896 4.91242917,21.0054933 4.91242917,19.32656 C4.91242917,17.6476267 6.27634583,16.3046933 7.9815125,16.3046933 L7.9815125,16.3046933 Z M31.0023458,16.3046933 C32.7075125,16.3046933 34.0719708,17.6476267 34.0719708,19.32656 C34.0719708,21.0054933 32.7075125,22.34896 31.0023458,22.34896 C29.2971792,22.34896 27.9327208,21.0054933 27.9327208,19.32656 C27.9327208,17.6476267 29.2971792,16.3046933 31.0023458,16.3046933 L31.0023458,16.3046933 Z M37.1410542,9.50469333 L37.1410542,9.59909333 L37.1410542,18.05136 C37.1410542,18.3500267 36.9162625,18.57136 36.6134708,18.57136 L35.5344708,18.57136 C35.1683042,16.4284267 33.2773458,14.7932267 31.0023458,14.7932267 C28.7273458,14.7932267 26.8363875,16.4284267 26.4702208,18.57136 L12.5136375,18.57136 C12.1480125,16.4284267 10.2565125,14.7932267 7.9815125,14.7932267 C5.7065125,14.7932267 3.81555417,16.4284267 3.44992917,18.57136 L2.61034583,18.57136 C2.18459583,18.57136 1.84280417,18.2342933 1.84280417,17.8156267 L1.84280417,12.80976 C1.84280417,11.6972267 2.64609583,10.7734933 3.7613875,10.59056 L10.4033042,9.50469333 L37.1410542,9.50469333 Z M23.3285542,7.99322667 L11.9383875,7.99322667 L16.4223042,2.75162667 C16.8605125,2.24122667 17.4926375,1.94896 18.1724292,1.94896 L23.3285542,1.94896 L23.3285542,7.99322667 Z M32.0813458,1.94896 C32.9539708,1.94896 33.7507625,2.43322667 34.1440125,3.20016 L36.5890958,7.99322667 L24.8636375,7.99322667 L24.8636375,1.94896 L32.0813458,1.94896 Z M18.1724292,0.438026667 C17.0430542,0.438026667 15.9759708,0.930826667 15.2479708,1.78362667 L9.90009583,8.04069333 L3.52142917,9.10362667 C1.67759583,9.40709333 0.3082625,10.96816 0.3082625,12.80976 L0.3082625,17.8156267 C0.3082625,19.0582933 1.3482625,20.0822933 2.61034583,20.0822933 L3.44992917,20.0822933 C3.81555417,22.2252267 5.7065125,23.8598933 7.9815125,23.8598933 C10.2565125,23.8598933 12.1480125,22.2252267 12.5136375,20.0822933 L26.4702208,20.0822933 C26.8363875,22.2252267 28.7273458,23.8598933 31.0023458,23.8598933 C33.2773458,23.8598933 35.1683042,22.2252267 35.5344708,20.0822933 L36.6134708,20.0822933 C37.7466375,20.0822933 38.6761375,19.1670933 38.6761375,18.05136 L38.6761375,9.59909333 C38.6761375,8.92602667 38.4692208,8.26522667 38.1241792,7.68709333 L38.1480125,7.68709333 L38.1003458,7.61562667 L35.5106375,2.51589333 C34.8600958,1.24069333 33.5292208,0.438026667 32.0813458,0.438026667 L18.1724292,0.438026667 Z" id="Fill-4" fill="#FEFEFE" fill-rule="nonzero" mask="url(#mask-4)"></path>
                    </g>
                </g>
                <path d="M23.7804787,17 C23.6601774,17 23.5404156,16.9989474 23.4195749,16.9957897 C22.8984492,16.9826325 22.4868355,16.5600222 22.5003222,16.0511005 C22.5132694,15.5427051 22.9313568,15.1274628 23.468127,15.1543036 C26.6121439,15.229563 29.6358596,14.1059354 31.9291362,11.9802531 C34.2229523,9.85404452 35.5311611,6.98418922 35.6126207,3.89802904 C35.6261074,3.38963362 36.0528262,2.9743914 36.5804255,3.00123215 C37.1010117,3.01438939 37.5131649,3.43699966 37.4996782,3.94539507 C37.4058109,7.52310942 35.8893676,10.8503101 33.230332,13.3154489 C30.6581506,15.699013 27.3145307,17 23.7804787,17" id="Fill-7" fill="#FEFEFE" fill-rule="nonzero"></path>
                <path d="M23.6968318,13 C23.6108951,13 23.5249584,12.9989557 23.4390218,12.9968672 C22.9068755,12.9838139 22.4865571,12.5645411 22.500329,12.0601606 C22.5141009,11.555258 22.9652684,11.1506049 23.4886006,11.1699238 C25.5962524,11.2289249 27.5942798,10.4921952 29.1213082,9.11689688 C30.6477857,7.74212069 31.5187207,5.88593787 31.5727066,3.89034555 C31.5853767,3.38544294 32.0304846,2.98183413 32.5609782,3.00063092 C33.0931245,3.01368424 33.5134429,3.43295704 33.499671,3.93733752 C33.433015,6.42060207 32.3494418,8.73104059 30.4494703,10.4420704 C28.6117478,12.097232 26.2220476,13 23.6968318,13" id="Fill-9" fill="#FEFEFE" fill-rule="nonzero"></path>
                <path d="M23.5239863,8 C23.4804825,8 23.4375029,7.99945726 23.393475,7.99837177 C22.8871542,7.9848032 22.4867101,7.54898083 22.5003378,7.0246914 C22.5129172,6.49985922 22.9248924,6.07380621 23.4406478,6.09931512 C24.2729846,6.1231958 25.0791143,5.8040631 25.6881668,5.20433243 C26.2972193,4.60514451 26.6447252,3.79591517 26.666215,2.92589865 C26.6787944,2.40106647 27.1122595,1.9831546 27.606525,2.00052237 C28.1128458,2.01409094 28.5132899,2.44991331 28.4996622,2.97474549 C28.4661172,4.35168368 27.9162927,5.63255641 26.951348,6.58181337 C26.0189002,7.4990485 24.8060366,8 23.5239863,8" id="Fill-11" fill="#FEFEFE" fill-rule="nonzero"></path>
            </g>
        </g>
    </g>
</svg>

<svg width="108" height="83" xmlns="http://www.w3.org/2000/svg" xmlns:xlink="http://www.w3.org/1999/xlink"><defs><path id="a" d="M0 .334h20.578V42H0z"/><path id="c" d="M.308.438h38.368V23.86H.308z"/></defs><g fill="none" fill-rule="evenodd"><circle fill="#CD171A" fill-rule="nonzero" cx="66.5" cy="41.5" r="41.5"/><circle fill="#CD171A" fill-rule="nonzero" cx="20.5" cy="20.5" r="20.5"/><text fill="#FFF" font-family="TisaSansOT, Tisa Sans OT" font-size="25"><tspan x="11.25" y="26">2</tspan></text><g transform="translate(35.5 19)"><mask id="b" fill="#fff"><use xlink:href="#a"/></mask><path d="M4.05 2.172c-1.154 0-2.093.915-2.093 2.04 0 .144-.002.287-.003.426-.017 1.253.063 1.406.409 1.515a.921.921 0 0 1 .652.886.922.922 0 0 1-.674.87c-.377.109-.464.27-.454 1.604l.003.35-.004.397c-.014 1.287.069 1.443.427 1.552.394.12.663.475.663.878a.922.922 0 0 1-.663.877c-.358.109-.44.265-.427 1.552l.004.397-.004.396c-.014 1.287.069 1.443.427 1.552.394.12.663.475.663.877a.922.922 0 0 1-.663.878c-.358.108-.44.265-.427 1.551l.004.397-.004.397c-.014 1.286.069 1.443.428 1.552.394.12.662.475.662.877a.922.922 0 0 1-.663.877c-.358.11-.44.265-.427 1.552l.004.396-.004.397c-.014 1.287.069 1.443.427 1.552.394.12.663.475.663.877a.922.922 0 0 1-.663.878c-.358.109-.44.265-.427 1.552l.004.397-.004.396c-.014 1.287.069 1.443.427 1.552.394.12.663.475.663.878a.923.923 0 0 1-.663.877c-.358.11-.44.265-.427 1.552l.004.397c0 1.124.938 2.04 2.092 2.04H16.53c1.154 0 2.092-.916 2.092-2.04l.003-.396c.015-1.288-.068-1.444-.427-1.553a.923.923 0 0 1-.662-.877c0-.403.268-.758.662-.878.36-.109.442-.265.427-1.553l-.003-.395.003-.396c.015-1.288-.068-1.444-.427-1.553a.922.922 0 0 1-.662-.878c0-.402.268-.757.662-.877.36-.109.442-.265.427-1.553l-.003-.396.003-.395c.015-1.287-.068-1.444-.427-1.553a.922.922 0 0 1-.662-.877c0-.402.268-.757.661-.877.36-.11.443-.266.428-1.553l-.003-.396.003-.396c.015-1.287-.068-1.443-.427-1.552a.922.922 0 0 1-.662-.878c0-.402.268-.757.662-.877.36-.11.442-.266.427-1.553l-.003-.395.003-.396c.015-1.288-.068-1.444-.427-1.553a.922.922 0 0 1-.662-.877c0-.403.268-.758.662-.878.36-.109.442-.265.427-1.553l-.003-.395c0-.145.002-.288.004-.427.017-1.253-.062-1.406-.409-1.515a.921.921 0 0 1-.652-.885.921.921 0 0 1 .674-.87c.377-.11.465-.27.453-1.605l-.002-.35c0-1.125-.938-2.04-2.092-2.04H4.05zM16.53 42H3.982C1.789 42 .005 40.26.005 38.123l-.003-.377c-.008-.77-.02-1.729.477-2.45-.496-.72-.485-1.678-.477-2.449l.003-.376-.003-.377c-.008-.771-.02-1.729.477-2.45-.496-.72-.485-1.678-.477-2.45l.003-.376-.003-.376c-.008-.77-.02-1.728.477-2.45-.497-.72-.485-1.678-.477-2.448l.003-.377-.003-.377c-.008-.77-.02-1.728.477-2.449-.496-.72-.485-1.678-.477-2.45l.003-.375-.003-.377c-.008-.771-.02-1.73.477-2.45-.496-.72-.485-1.678-.477-2.449l.003-.376-.002-.335c-.006-.799-.015-1.794.513-2.527C.046 6.29.06 5.363.07 4.614c.002-.131.004-.266.004-.402C.073 2.074 1.857.334 4.05.334h12.548c2.193 0 3.977 1.74 3.977 3.878l.002.334c.006.8.015 1.794-.514 2.528.47.71.458 1.638.448 2.387a24.47 24.47 0 0 0-.004.403l.003.375c.009.771.019 1.73-.478 2.45.497.721.487 1.68.478 2.45l-.003.377.003.375c.009.771.019 1.73-.478 2.45.497.721.487 1.68.478 2.45l-.003.376.003.375c.009.771.019 1.73-.478 2.45.497.722.487 1.68.478 2.451l-.003.375.003.376c.009.772.019 1.73-.478 2.45.497.721.487 1.68.478 2.451l-.003.376.003.375c.009.771.019 1.73-.478 2.45.497.721.487 1.68.478 2.451l-.003.376c0 2.138-1.784 3.877-3.977 3.877z" fill="#FEFEFE" fill-rule="nonzero" mask="url(#b)"/></g><g transform="translate(58.5 38)"><mask id="d" fill="#fff"><use xlink:href="#c"/></mask><path d="M7.982 16.305c1.705 0 3.07 1.343 3.07 3.022 0 1.678-1.365 3.022-3.07 3.022-1.706 0-3.07-1.344-3.07-3.022 0-1.68 1.364-3.022 3.07-3.022zm23.02 0c1.706 0 3.07 1.343 3.07 3.022 0 1.678-1.364 3.022-3.07 3.022-1.705 0-3.07-1.344-3.07-3.022 0-1.68 1.365-3.022 3.07-3.022zm6.14-6.8v8.546a.51.51 0 0 1-.529.52h-1.079c-.366-2.143-2.257-3.778-4.532-3.778s-4.166 1.635-4.532 3.778H12.514c-.366-2.143-2.257-3.778-4.532-3.778s-4.166 1.635-4.532 3.778h-.84a.76.76 0 0 1-.767-.755V12.81c0-1.113.803-2.037 1.918-2.22l6.642-1.085h26.738zM23.328 7.993h-11.39l4.483-5.241a2.294 2.294 0 0 1 1.75-.803h5.157v6.044zM32.08 1.95c.873 0 1.67.484 2.063 1.251l2.445 4.793H24.864V1.95h7.217zM18.172.438a3.841 3.841 0 0 0-2.924 1.346L9.9 8.04 3.521 9.104C1.678 9.407.308 10.968.308 12.81v5.006c0 1.242 1.04 2.266 2.302 2.266h.84c.366 2.143 2.257 3.778 4.532 3.778s4.166-1.635 4.532-3.778H26.47c.366 2.143 2.257 3.778 4.532 3.778s4.166-1.635 4.532-3.778h1.08c1.133 0 2.062-.915 2.062-2.03V9.598c0-.673-.207-1.334-.552-1.912h.024l-.048-.071-2.59-5.1A3.846 3.846 0 0 0 32.082.438h-13.91z" fill="#FEFEFE" fill-rule="nonzero" mask="url(#d)"/></g><path d="M58.78 36c-.12 0-.24-.001-.36-.004a.931.931 0 0 1-.92-.945.915.915 0 0 1 .968-.897c3.144.076 6.168-1.048 8.461-3.174 2.294-2.126 3.602-4.996 3.684-8.082a.921.921 0 0 1 .967-.897.932.932 0 0 1 .92.944c-.094 3.578-1.61 6.905-4.27 9.37C65.658 34.7 62.315 36 58.78 36" fill="#FEFEFE" fill-rule="nonzero"/><path d="M58.697 32l-.258-.003c-.532-.013-.952-.432-.939-.937.014-.505.465-.91.989-.89a8.037 8.037 0 0 0 5.632-2.053c1.527-1.375 2.398-3.231 2.452-5.227.012-.505.457-.908.988-.89.532.014.952.433.939.937-.067 2.484-1.15 4.794-3.05 6.505C63.611 31.097 61.221 32 58.696 32m-.172-5c-.044 0-.086 0-.13-.002-.507-.013-.907-.449-.894-.973.013-.525.425-.951.94-.926a3.07 3.07 0 0 0 2.248-.895c.61-.599.957-1.408.978-2.278.013-.525.446-.943.94-.925.507.013.907.449.894.974a5.205 5.205 0 0 1-1.549 3.607A4.858 4.858 0 0 1 58.524 27" fill="#FEFEFE" fill-rule="nonzero"/></g></svg>
